X:106
T:Wellington Jig
C:Judi Stellar 2006 
R:jig
M:6/8
K:Am
"Am"DEG A2A|"G"BAG cBA|"Am"DEG A2A|"G"BAG "D"D3|
"Am"DEG A2A|"G"BAG cBA|"D"dcB ABc|"Am7"AGE "D"D2D:|
|:"C"E2 c-c2c|cBA "G"GAB|"C"E2c-c2 c-|cBc "D"d2D|
"C"E2 c-c2c|cBA "G"GAB|"C"cBA "G"G^FG|1"Am7"AGE "D"D2D:|2"Am7"AGE "D"D3|]
